packages/sights/assets/overlays/GHbWVnMB.svg

<svg width="500" height="375" viewBox="0 0 500 375" fill="none" xmlns="http://www.w3.org/2000/svg">
<path d="M40.57 76.5094C40.57 76.5094 55.47 39.8194 63.84 31.2194L80 19.9994C80 19.9994 185.14 -6.50051 357.8 19.9994L393.57 26.2994L397 32.4794L395 44.6394L449.34 96.6894L482.34 117.32L486.24 126.96L477.53 165.96L486.24 188.32L483.72 206.32L467.9 252.41C467.9 252.41 404.58 327.82 361 347.08C361 347.08 289.92 363.13 273.87 364.51C273.87 364.51 232.14 354.42 221.59 346.62L217.46 343.18C217.46 343.18 175 223 132.17 211.64C132.17 211.64 112.17 204.76 125.75 249.55L126.06 252.15C126.06 252.15 51.76 184.59 41.37 159.21C41.37 159.21 23.83 107.21 15.69 107.69L14 100.24L19 85.5694" stroke="white" stroke-miterlimit="10"/>
<path d="M22.9406 115.5C22.7207 115.444 22.4905 115.444 22.2706 115.5C18.9306 116.6 21.4206 133.34 27.8306 152.9C34.2406 172.46 42.1306 187.42 45.4706 186.33L57.7106 182.91" stroke="white" stroke-miterlimit="10"/>
<path d="M21.8409 130C21.8409 130 15.5209 115.54 15.6909 107.68" stroke="white" stroke-miterlimit="10"/>
<path d="M225.181 348.79L195.961 366.79C195.751 366.88 195.531 366.98 195.311 367.06C181.311 372.41 157.411 344.01 142.021 303.63C126.631 263.25 125.541 226.17 139.581 220.82L140.071 220.65L146.211 218.97" stroke="white" stroke-miterlimit="10"/>
<path d="M9.73047 73.07C9.73047 73.07 20.2305 63.62 33.3405 63.21L39.2505 65L40.0005 67.57L40.5805 80.41L44.5805 78.92C44.5805 78.92 45.8405 82.41 44.1805 84.25L38.1005 84.65C38.1005 84.65 17.4105 87.52 15.4605 84.25C15.4005 84.25 11.4505 81 9.73047 73.07Z" stroke="white" stroke-miterlimit="10"/>
<path d="M61.9091 33.5301C61.9091 33.5301 82.6391 11.6501 153.039 33.5301L165.419 115.47L163.359 118.85L44.1191 84.2501" stroke="white" stroke-miterlimit="10"/>
<path d="M393.57 26.2894C393.57 26.2894 281.06 24.2294 235.82 41.3494C235.82 41.3494 214.72 56.6394 209.52 64.5894L250.09 143.46C250.09 143.46 369.6 154.3 454.09 99.6594" stroke="white" stroke-miterlimit="10"/>
<path d="M209.52 174C209.52 174 216.25 166.66 237.34 171.55C237.34 171.55 276.78 182.86 337.93 177.06C337.93 177.06 370.34 170.92 379.2 174.29L388.07 177.06L368.81 208L330.59 219L313.47 233.65C313.47 233.65 260.89 242.82 230.92 226.65C230.92 226.62 212 197.27 209.52 174Z" stroke="white" stroke-miterlimit="10"/>
<path d="M313.471 233.66V252.31C313.471 252.31 337.621 279.52 348.941 284.41L359.001 287.16C359.001 287.16 428.531 272.47 484.111 203.08" stroke="white" stroke-miterlimit="10"/>
<path d="M477.499 165.94L465.339 192.54C465.339 192.54 426.229 246.07 331.779 271.2" stroke="white" stroke-miterlimit="10"/>
<path d="M476 113.4C476 113.4 483.31 127.76 481 133.49L477.5 137L478.76 149.16L480.89 150.71" stroke="white" stroke-miterlimit="10"/>
<path d="M395 44.6396C395 44.6396 386.29 36.6396 375.05 36.8396C375.05 36.8396 328.72 35.1096 220.84 53.1696" stroke="white" stroke-miterlimit="10"/>
<path d="M250.09 143.46L275.98 177.66" stroke="white" stroke-miterlimit="10"/>
</svg>

<svg width="500" height="375" fill="none" xmlns="http://www.w3.org/2000/svg"><path d="M40.57 76.51s14.9-36.69 23.27-45.29L80 20s105.14-26.5 277.8 0l35.77 6.3 3.43 6.18-2 12.16 54.34 52.05 33 20.63 3.9 9.64-8.71 39 8.71 22.36-2.52 18-15.82 46.09s-63.32 75.41-106.9 94.67c0 0-71.08 16.05-87.13 17.43 0 0-41.73-10.09-52.28-17.89l-4.13-3.44S175 223 132.17 211.64c0 0-20-6.88-6.42 37.91l.31 2.6s-74.3-67.56-84.69-92.94c0 0-17.54-52-25.68-51.52L14 100.24l5-14.67" stroke="#fff" stroke-miterlimit="10"/><path d="M22.94 115.5a1.357 1.357 0 0 0-.67 0c-3.34 1.1-.85 17.84 5.56 37.4 6.41 19.56 14.3 34.52 17.64 33.43l12.24-3.42" stroke="#fff" stroke-miterlimit="10"/><path d="M21.84 130s-6.32-14.46-6.15-22.32M225.181 348.79l-29.22 18c-.21.09-.43.19-.65.27-14 5.35-37.9-23.05-53.29-63.43-15.39-40.38-16.48-77.46-2.44-82.81l.49-.17 6.14-1.68M9.73 73.07s10.5-9.45 23.61-9.86L39.25 65l.75 2.57.58 12.84 4-1.49s1.26 3.49-.4 5.33l-6.08.4s-20.69 2.87-22.64-.4c-.06 0-4.01-3.25-5.73-11.18Z" stroke="#fff" stroke-miterlimit="10"/><path d="M61.91 33.53s20.73-21.88 91.129 0l12.38 81.94-2.06 3.38-119.24-34.6M393.57 26.29s-112.51-2.06-157.75 15.06c0 0-21.1 15.29-26.3 23.24l40.57 78.87s119.51 10.84 204-43.8M209.52 174s6.73-7.34 27.82-2.45c0 0 39.44 11.31 100.59 5.51 0 0 32.41-6.14 41.27-2.77l8.87 2.77L368.81 208l-38.22 11-17.12 14.65s-52.58 9.17-82.55-7c0-.03-18.92-29.38-21.4-52.65ZM313.471 233.66v18.65s24.15 27.21 35.47 32.1l10.06 2.75s69.53-14.69 125.11-84.08" stroke="#fff" stroke-miterlimit="10"/><path d="m477.499 165.94-12.16 26.6s-39.11 53.53-133.56 78.66M476 113.4s7.31 14.36 5 20.09l-3.5 3.51 1.26 12.16 2.13 1.55M395 44.64s-8.71-8-19.95-7.8c0 0-46.33-1.73-154.21 16.33M250.09 143.46l25.89 34.2" stroke="#fff" stroke-miterlimit="10"/></svg>
